!!!OTL-incipit: GESTERN ABEND WAR VETTER MICHEL HIER
!!!ARE: Europa, Mitteleuropa, Deutschland, Westfalen
!!!SCT: Z0163
!!!YEM: Copyright 1995, estate of Helmut Schaffrath.
**kern	**text
*ICvox	*
*M4/4	*
*met(c)	*
*k[b-]	*
*F:	*
!LO:TX:a:t=Weſtphalen.	!
{8f	Ge-
8g	-ſtern
=1	=1
4a	A-
4f	-bend
4f	war
8g	Vetter
8a	.
=2	=2
4b-/	Michel
4g	.
4g}	hier,
{8cc	ge-
8b-	-ſtern
=3	=3
4a	A-
4f	-bend
4f	war
8e	Vet-
8f	-ter
=4	=4
8gL	Mi-
8fJ	.
8eL	-chel
8dJ	.
4c}	hier,
{8f	Vet-
8g	-ter
=5	=5
4a	Mi-
4f	-chel
4f	war
8g	ge-
8a	-ſtern
=6	=6
4b-/	A-
4g	-bend
4g}	hier,
{8cc	ge-
8cc	-ſtern
=7	=7
8ccL	A-
8b-J	.
8aL	-bend
8gJ	.
4f	war
8a	Vetter
8g	.
=8	=8
4f	Mi-
4f	-chel
4f}	da;
{8aL	der
8b-J	.
=9	=9
4cc	ein
4cc	'ſprach
4cc	nein,
4ee-	der
=10	=10
4dd	an-
4b-	-dre
4b-}	ja,
{8b-	Vetter
8cc	.
=11	=11
4dd	Michel
4dd	.
4dd	ſprach
4ff	wohl
=12	=12
4een	nein
4cc	und
4cc}	ja,
{8f	Vet-
8g	-ter
=13	=13
4a	Mi-
4f	-chel
4f	war
8g	ge-
8a	-ſtern
=14	=14
4b-/	A-
4g	-bend
4g}	hier,
{8cc	Vetter
8cc	.
=15	=15
4a	Mi-
4a	-chel
8aqq	.
8gL	war
8fJ	.
8g	ge-
8a	-ſtern
=16	=16
4f	A-
4f	-bend
4f}	da.
==	==
!!!AGN: Erzaehlung, lustige Romanze
!!!ONB: ESAC (Essen Associative Code) Database: ZUCCAL
!!!AMT: simple quadruple
!!!AIN: vox
!!!EED: Helmut Schaffrath
!!!EEV: 1.0
!!!GTL: II. Erzahlungen, lustige Romanzen, Kinder-Lieder und episch-lyrische Volks-Lieder.
!!!URL-scan: https://www.digitale-sammlungen.de/de/view/bsb11160571?page=306
!!!ENC: Anna Maria Matuszewska
!!!EEV: 2025/01/28
*-	*-
